launcher/android/assets/skins/day/svg/mapTrailhead2.svg

<svg enable-background="new 0 0 258.00 258.00" height="258" viewBox="0 0 258 258" width="258" xmlns="http://www.w3.org/2000/svg" xmlns:xlink="http://www.w3.org/1999/xlink"><linearGradient id="a" gradientTransform="matrix(0 -1 1 0 -.581108 1.581108)" gradientUnits="objectBoundingBox" x1=".5" x2="1.66222" y1="1.08111" y2="1.08111"><stop offset="0" stop-color="#abc4ab"/><stop offset=".771552" stop-color="#d5e1d5"/><stop offset="1" stop-color="#fff"/></linearGradient><linearGradient id="b"><stop offset=".0186047" stop-color="#e3d191"/><stop offset=".55814" stop-color="#e2af00"/><stop offset=".787252" stop-color="#ab7800"/><stop offset="1" stop-color="#744100"/></linearGradient><linearGradient id="c" gradientUnits="objectBoundingBox" x1="0" x2="1" xlink:href="#b" y1=".500003" y2=".500003"/><linearGradient id="d" gradientTransform="matrix(.962273108673 .272085398955 -.272085398955 .962273108673 .109561071462 -.023063713808)" gradientUnits="objectBoundingBox" x1=".137948" x2="1.0843" y1=".383544" y2=".383544"><stop offset=".0186047" stop-color="#cebe83"/><stop offset=".55814" stop-color="#c79c07"/><stop offset=".787252" stop-color="#8f6604"/><stop offset="1" stop-color="#573101"/></linearGradient><linearGradient id="e" gradientTransform="matrix(.965923748325 .258826800044 -.258826800044 .965923748325 .099963012381 -.018102909972)" gradientUnits="objectBoundingBox" x1=".118732" x2="1.11874" xlink:href="#b" y1=".370584" y2=".370584"/><linearGradient id="f" gradientUnits="objectBoundingBox" x1="-.0142854" x2="1.01429" y1=".5" y2=".5"><stop offset=".0186047" stop-color="#d7b77e"/><stop offset=".55814" stop-color="#d4b780"/><stop offset=".787252" stop-color="#d7bc89"/><stop offset="1" stop-color="#dbc292"/></linearGradient><linearGradient id="g"><stop offset=".0186047" stop-color="#e5d5b4"/><stop offset="1" stop-color="#efe4d0"/></linearGradient><linearGradient id="h" gradientUnits="objectBoundingBox" x1="-.0168552" x2="1.01685" xlink:href="#g" y1=".484032" y2=".484032"/><linearGradient id="i" gradientUnits="objectBoundingBox" x1="-.0312494" x2="1.03125" xlink:href="#g" y1=".5" y2=".5"/><linearGradient id="j" gradientUnits="objectBoundingBox" x1=".0272283" x2="1.02228" y1=".484615" y2=".484615"><stop offset=".0186047" stop-color="#d9bf8d"/><stop offset="1" stop-color="#d7b77e"/></linearGradient><linearGradient id="k"><stop offset=".0186047" stop-color="#e7d7b9"/><stop offset="1" stop-color="#eee2cd"/></linearGradient><linearGradient id="l" gradientUnits="objectBoundingBox" x1="-.0199111" x2="1.01991" xlink:href="#k" y1=".483146" y2=".483146"/><linearGradient id="m" gradientUnits="objectBoundingBox" x1="-.0330876" x2="1.03309" xlink:href="#k" y1=".5" y2=".5"/><path d="m43.9999 3.78503h170.0001c22.091 0 40 17.90857 40 39.99987v170.0001c0 22.091-17.909 40-40 40h-170.0001c-22.0915 0-40.00002-17.909-40.00002-40v-170.0001c0-22.0913 17.90852-39.99987 40.00002-39.99987z" fill="url(#a)" stroke="#000" stroke-linecap="square" stroke-linejoin="bevel" stroke-width="8"/><g stroke-linejoin="round"><path d="m113.653 38.467h9.652c12.703 0 23 10.2975 23 22.9997v133.5663c0 12.702-10.297 23-23 23h-9.652c-12.703 0-23.0002-10.298-23.0002-23v-133.5663c0-12.7022 10.2972-22.9997 23.0002-22.9997z" fill="url(#c)" stroke-width=".2"/><path d="m118.914 38.4685c15.607 0 28.261 6.0348 28.261 13.4783 0 7.4441-12.653 13.4785-28.261 13.4785s-28.2613-6.0344-28.2613-13.4785c0-7.4435 12.6533-13.4783 28.2613-13.4783z" fill="url(#e)" stroke="url(#d)" stroke-width="3"/><path d="m128.479 75.8594v52.1736l65.218 12.174 26.086-14.782-23.913-32.1743z" fill="url(#f)" stroke="#000" stroke-width="3"/><path d="m128.914 74.1202 4.891-1.0145 7.392-3.2607 4.347-3.9131 2.174-3.9131 58.587 12.9709-12.174 16.5218z" fill="url(#h)" stroke="#000" stroke-width="3"/><path d="m206.305 74.9897 28.696 36.5213-14.783 14.783-26.956-34.7825z" fill="url(#i)" stroke="#000" stroke-width="3"/><path d="m114.421 76.4391-39.4201 29.5649-19.1305 44.058 28.4057 1.739 30.1449-26.087z" fill="url(#j)" stroke="#000" stroke-width="3"/><path d="m74.4211 106.004-24.9276-9.275 40-28.9856.6161-.4348 3.6956 4.3479 7.8618 3.0435 13.334.5797z" fill="url(#l)" stroke="#000" stroke-width="3"/><path d="m49.4935 96.729-14.4926 39.42 20.2896 13.913 19.1306-42.898z" fill="url(#m)" stroke="#000" stroke-width="3"/></g></svg>

﻿<?xml version="1.0" encoding="utf-8"?>
<!DOCTYPE svg PUBLIC "-//W3C//DTD SVG 1.1//EN" "http://www.w3.org/Graphics/SVG/1.1/DTD/svg11.dtd">
<svg xmlns="http://www.w3.org/2000/svg" xmlns:xlink="http://www.w3.org/1999/xlink" version="1.1" baseProfile="full" width="258" height="258" viewBox="0 0 258.00 258.00" enable-background="new 0 0 258.00 258.00" xml:space="preserve">
	<linearGradient id="SVGID_Fill1_" gradientUnits="objectBoundingBox" x1="0.5" y1="1.08111" x2="1.66222" y2="1.08111" gradientTransform="rotate(-90.000000 0.500000 1.081108)">
		<stop offset="0" stop-color="#ABC4AB" stop-opacity="1"/>
		<stop offset="0.771552" stop-color="#D5E1D5" stop-opacity="1"/>
		<stop offset="1" stop-color="#FFFFFF" stop-opacity="1"/>
	</linearGradient>
	<path fill="url(#SVGID_Fill1_)" stroke-width="8" stroke-linecap="square" stroke-linejoin="bevel" stroke="#000000" stroke-opacity="1" d="M 43.9999,3.78503L 214,3.78503C 236.091,3.78503 254,21.6936 254,43.7849L 254,213.785C 254,235.876 236.091,253.785 214,253.785L 43.9999,253.785C 21.9084,253.785 3.99988,235.876 3.99988,213.785L 3.99988,43.7849C 3.99988,21.6936 21.9084,3.78503 43.9999,3.78503 Z "/>
	<g>
		<linearGradient id="SVGID_Fill2_" gradientUnits="objectBoundingBox" x1="0" y1="0.500003" x2="1" y2="0.500003">
			<stop offset="0.0186047" stop-color="#E3D191" stop-opacity="1"/>
			<stop offset="0.55814" stop-color="#E2AF00" stop-opacity="1"/>
			<stop offset="0.787252" stop-color="#AB7800" stop-opacity="1"/>
			<stop offset="1" stop-color="#744100" stop-opacity="1"/>
		</linearGradient>
		<path fill="url(#SVGID_Fill2_)" stroke-width="0.2" stroke-linejoin="round" d="M 113.653,38.467L 123.305,38.467C 136.008,38.467 146.305,48.7645 146.305,61.4667L 146.305,195.033C 146.305,207.735 136.008,218.033 123.305,218.033L 113.653,218.033C 100.95,218.033 90.6528,207.735 90.6528,195.033L 90.6528,61.4667C 90.6528,48.7645 100.95,38.467 113.653,38.467 Z "/>
		<linearGradient id="SVGID_Stroke1_" gradientUnits="objectBoundingBox" x1="0.137948" y1="0.383544" x2="1.0843" y2="0.383544" gradientTransform="rotate(15.788398 0.137948 0.383544)">
			<stop offset="0.0186047" stop-color="#CEBE83" stop-opacity="1"/>
			<stop offset="0.55814" stop-color="#C79C07" stop-opacity="1"/>
			<stop offset="0.787252" stop-color="#8F6604" stop-opacity="1"/>
			<stop offset="1" stop-color="#573101" stop-opacity="1"/>
		</linearGradient>
		<linearGradient id="SVGID_Fill3_" gradientUnits="objectBoundingBox" x1="0.118732" y1="0.370584" x2="1.11874" y2="0.370584" gradientTransform="rotate(15.000460 0.118732 0.370584)">
			<stop offset="0.0186047" stop-color="#E3D191" stop-opacity="1"/>
			<stop offset="0.55814" stop-color="#E2AF00" stop-opacity="1"/>
			<stop offset="0.787252" stop-color="#AB7800" stop-opacity="1"/>
			<stop offset="1" stop-color="#744100" stop-opacity="1"/>
		</linearGradient>
		<path fill="url(#SVGID_Fill3_)" stroke-width="3" stroke-linejoin="round" stroke="url(#SVGID_Stroke1_)" d="M 118.914,38.4685C 134.521,38.4685 147.175,44.5033 147.175,51.9468C 147.175,59.3909 134.522,65.4253 118.914,65.4253C 103.306,65.4253 90.6527,59.3909 90.6527,51.9468C 90.6527,44.5033 103.306,38.4685 118.914,38.4685 Z "/>
		<linearGradient id="SVGID_Fill4_" gradientUnits="objectBoundingBox" x1="-0.0142854" y1="0.5" x2="1.01429" y2="0.5">
			<stop offset="0.0186047" stop-color="#D7B77E" stop-opacity="1"/>
			<stop offset="0.55814" stop-color="#D4B780" stop-opacity="1"/>
			<stop offset="0.787252" stop-color="#D7BC89" stop-opacity="1"/>
			<stop offset="1" stop-color="#DBC292" stop-opacity="1"/>
		</linearGradient>
		<path fill="url(#SVGID_Fill4_)" stroke-width="3" stroke-linejoin="round" stroke="#000000" stroke-opacity="1" d="M 128.479,75.8594L 128.479,128.033L 193.697,140.207L 219.783,125.425L 195.87,93.2507L 128.479,75.8594 Z "/>
		<linearGradient id="SVGID_Fill5_" gradientUnits="objectBoundingBox" x1="-0.0168552" y1="0.484032" x2="1.01685" y2="0.484032">
			<stop offset="0.0186047" stop-color="#E5D5B4" stop-opacity="1"/>
			<stop offset="1" stop-color="#EFE4D0" stop-opacity="1"/>
		</linearGradient>
		<path fill="url(#SVGID_Fill5_)" stroke-width="3" stroke-linejoin="round" stroke="#000000" stroke-opacity="1" d="M 128.914,74.1202L 133.805,73.1057L 141.197,69.845L 145.544,65.9319L 147.718,62.0188L 206.305,74.9897L 194.131,91.5115L 128.914,74.1202 Z "/>
		<linearGradient id="SVGID_Fill6_" gradientUnits="objectBoundingBox" x1="-0.0312494" y1="0.5" x2="1.03125" y2="0.5">
			<stop offset="0.0186047" stop-color="#E5D5B4" stop-opacity="1"/>
			<stop offset="1" stop-color="#EFE4D0" stop-opacity="1"/>
		</linearGradient>
		<path fill="url(#SVGID_Fill6_)" stroke-width="3" stroke-linejoin="round" stroke="#000000" stroke-opacity="1" d="M 206.305,74.9897L 235.001,111.511L 220.218,126.294L 193.262,91.5115L 206.305,74.9897 Z "/>
		<linearGradient id="SVGID_Fill7_" gradientUnits="objectBoundingBox" x1="0.0272283" y1="0.484615" x2="1.02228" y2="0.484615">
			<stop offset="0.0186047" stop-color="#D9BF8D" stop-opacity="1"/>
			<stop offset="1" stop-color="#D7B77E" stop-opacity="1"/>
		</linearGradient>
		<path fill="url(#SVGID_Fill7_)" stroke-width="3" stroke-linejoin="round" stroke="#000000" stroke-opacity="1" d="M 114.421,76.4391L 75.0009,106.004L 55.8704,150.062L 84.2761,151.801L 114.421,125.714L 114.421,76.4391 Z "/>
		<linearGradient id="SVGID_Fill8_" gradientUnits="objectBoundingBox" x1="-0.0199111" y1="0.483146" x2="1.01991" y2="0.483146">
			<stop offset="0.0186047" stop-color="#E7D7B9" stop-opacity="1"/>
			<stop offset="1" stop-color="#EEE2CD" stop-opacity="1"/>
		</linearGradient>
		<path fill="url(#SVGID_Fill8_)" stroke-width="3" stroke-linejoin="round" stroke="#000000" stroke-opacity="1" d="M 74.4211,106.004L 49.4935,96.729L 89.4935,67.7434L 90.1096,67.3086L 93.8052,71.6565L 101.667,74.7L 115.001,75.2797L 74.4211,106.004 Z "/>
		<linearGradient id="SVGID_Fill9_" gradientUnits="objectBoundingBox" x1="-0.0330876" y1="0.5" x2="1.03309" y2="0.5">
			<stop offset="0.0186047" stop-color="#E7D7B9" stop-opacity="1"/>
			<stop offset="1" stop-color="#EEE2CD" stop-opacity="1"/>
		</linearGradient>
		<path fill="url(#SVGID_Fill9_)" stroke-width="3" stroke-linejoin="round" stroke="#000000" stroke-opacity="1" d="M 49.4935,96.729L 35.0009,136.149L 55.2905,150.062L 74.4211,107.164L 49.4935,96.729 Z "/>
	</g>
</svg>
